X: 36
T: Missa Ma bouche rit / Credo
N: Derived from Mar1010c-Missa_Ma_bouche_rit-Credo.krn
C: Johannes Martini
%%abc-version 2.0
%%abcx-abcm2ps-target-version 5.9.1 (29 Sep 2008)
%%abc-creator hum2abc beta
%%abcx-conversion-date 2019/02/17 07:19:41
%%abc-edited-by Jesse Rodin
%%abc-edited-by Chris Gage 10-22-2014
%%abcx-initial-encoding-date 2015/03/07/
%%humdrum-veritas 2882745304
%%humdrum-veritas-data 124415191
%%linebreak <none>
%%barnumbers 0
L: 1/4
M: 4/2
Q: 1/2=120
%%staves [1 2 3 4]
V: 1 clef=treble
V: 2 clef=treble-8
V: 3 clef=treble-8
V: 4 clef=bass
K: C
[V:1] A8 | 
[V:2] z8 | 
[V:3] z8 | 
[V:4] z8 | 
[V:1] E4A4 | 
[V:2] z8 | 
[V:3] A8 | 
[V:4] z8 | 
[V:1] G4c4 | 
[V:2] z8 | 
[V:3] E4A4 | 
[V:4] z8 | 
[V:1] B4c2d2- | 
[V:2] z8 | 
[V:3] G3FE2D2 | 
[V:4] z8 | 
[V:1] dcB4A2 | 
[V:2] z8 | 
[V:3] G4c3B | 
[V:4] z8 | 
[V:1] B4E4 | 
[V:2] z8 | 
[V:3] G8 | 
[V:4] z8 | 
[V:1] z8 | 
[V:2] g4e2f2 | 
[V:3] z8 | 
[V:4] G,4A,4 | 
[V:1] z8 | 
[V:2] d2g4fe | 
[V:3] z8 | 
[V:4] B,4C4 | 
[V:1] z8 | 
[V:2] d4c3d | 
[V:3] z8 | 
[V:4] B,4z2E,2- | 
[V:1] z8 | 
[V:2] e2f4e2- | 
[V:3] z8 | 
[V:4] E,2D,2E,2G,2 | 
[V:1] z8 | 
[V:2] e2d2e4 | 
[V:3] z8 | 
[V:4] F,4E,4 | 
[V:1] G4A4 | 
[V:2] z8 | 
[V:3] e4d2c2 | 
[V:4] z8 | 
[V:1] B2B2c4 | 
[V:2] z8 | 
[V:3] d2cBA4 | 
[V:4] z8 | 
[V:1] B2A4G2- | 
[V:2] z8 | 
[V:3] G2F2G4 | 
[V:4] z8 | 
[V:1] G2^F2G4 | 
[V:2] z8 | 
[V:3] A4G4 | 
[V:4] z8 | 
[V:1] z8 | 
[V:2] g6e2 | 
[V:3] z8 | 
[V:4] C4B,2C2 | 
[V:1] z8 | 
[V:2] f2e3dc2- | 
[V:3] z8 | 
[V:4] A,2G,3E,F,2 | 
[V:1] z8 | 
[V:2] c2B2c4 | 
[V:3] z8 | 
[V:4] D,4C,4 | 
[V:1] G8 | 
[V:2] B4c4 | 
[V:3] G8 | 
[V:4] E,8 | 
[V:1] F2G2A4 | 
[V:2] d4c2d2- | 
[V:3] A8 | 
[V:4] D,2E,2F,4 | 
[V:1] G4G4- | 
[V:2] d4e4 | 
[V:3] B4c4 | 
[V:4] G,4C,4- | 
[V:1] G2G2G4 | 
[V:2] e2e2e4 | 
[V:3] c2c2c4 | 
[V:4] C,2C,2C,4 | 
[V:1] F4G4- | 
[V:2] d4B2c2 | 
[V:3] A4G2E2- | 
[V:4] D,4E,3F, | 
[V:1] G2E2F4 | 
[V:2] G2c4B2 | 
[V:3] E2C2D4 | 
[V:4] G,2A,2F,4 | 
[V:1] E4A4 | 
[V:2] c4f4 | 
[V:3] C4z4 | 
[V:4] G,4D,4- | 
[V:1] F2G4FE | 
[V:2] d2e3dc2- | 
[V:3] z8 | 
[V:4] D,2C,2E,2F,2 | 
[V:1] D4C4 | 
[V:2] c2B2c4 | 
[V:3] z8 | 
[V:4] G,4C,4 | 
[V:1] z8 | 
[V:2] g4a4 | 
[V:3] e4c2d2- | 
[V:4] C3DE2F2- | 
[V:1] z4c4 | 
[V:2] d2g4^f2 | 
[V:3] d2B2A4 | 
[V:4] F2D4C2 | 
[V:1] B6G2 | 
[V:2] g2d4e2 | 
[V:3] G8 | 
[V:4] D4G,4 | 
[V:1] A4G4 | 
[V:2] f4d2e2 | 
[V:3] z4G4 | 
[V:4] F,4_B,4 | 
[V:1] A4B4 | 
[V:2] f4g4- | 
[V:3] c4d4 | 
[V:4] A,4G,4 | 
[V:1] c8 | 
[V:2] g8- | 
[V:3] e6e2 | 
[V:4] C,8 | 
[V:1] B8 | 
[V:2] g4g4 | 
[V:3] d4d2d2 | 
[V:4] G,8 | 
[V:1] A4B4 | 
[V:2] f4g4 | 
[V:3] c4d4 | 
[V:4] A,4G,4 | 
[V:1] B2G4A2- | 
[V:2] g2e4f2- | 
[V:3] G4c4- | 
[V:4] E,4C,2F,2- | 
[V:1] A2G4^F2 | 
[V:2] f2e2d4 | 
[V:3] c2B2A4 | 
[V:4] F,2G,2D,4 | 
[V:1] G8 | 
[V:2] B4z4 | 
[V:3] G4c4 | 
[V:4] E,4C,4 | 
[V:1] z8 | 
[V:2] z8 | 
[V:3] d2f4e2- | 
[V:4] G,2A,4G,2 | 
[V:1] z8 | 
[V:2] z8 | 
[V:3] e2d2e4 | 
[V:4] F,4E,4 | 
[V:1] G4A2B2 | 
[V:2] z8 | 
[V:3] z8 | 
[V:4] C6G,2 | 
[V:1] c2d4c2- | 
[V:2] z8 | 
[V:3] z8 | 
[V:4] A,2B,2C4 | 
[V:1] c2B2c4 | 
[V:2] z8 | 
[V:3] z8 | 
[V:4] D4C4 | 
[V:1] z8 | 
[V:2] e4d2f2 | 
[V:3] z8 | 
[V:4] C,4D,4 | 
[V:1] z8 | 
[V:2] g2a4g2- | 
[V:3] z4B4 | 
[V:4] E,2F,2G,4 | 
[V:1] z8 | 
[V:2] g2f2g2a2- | 
[V:3] c4d2d2- | 
[V:4] A,4G,2F,2 | 
[V:1] z8 | 
[V:2] a2g2f2d2 | 
[V:3] d2^c2d4 | 
[V:4] E,2E,2D,4 | 
[V:1] c4B2c2 | 
[V:2] e2f2g4 | 
[V:3] z2c2d2e2 | 
[V:4] A,4G,3F, | 
[V:1] d4c2A2- | 
[V:2] z8 | 
[V:3] f4e2f2- | 
[V:4] D,4z2D,2 | 
[V:1] A2GFE4 | 
[V:2] a8 | 
[V:3] fed4^c2 | 
[V:4] F,2G,2A,4 | 
[V:1] D2F2E4 | 
[V:2] f2a4g2 | 
[V:3] d4c4 | 
[V:4] D,4E,4 | 
[V:1] z2A2A2A2- | 
[V:2] a4d4 | 
[V:3] f6f2 | 
[V:4] D,8 | 
[V:1] A2B4A2- | 
[V:2] c2d2B2c2 | 
[V:3] f4d4 | 
[V:4] F,2D,2G,2F,2 | 
[V:1] A2d4^c2 | 
[V:2] d2a3ge2 | 
[V:3] f4e4 | 
[V:4] D,4A,4 | 
[V:1] d4A4 | 
[V:2] f4z4 | 
[V:3] d4d4 | 
[V:4] D,4F,4 | 
[V:1] B4c4 | 
[V:2] g4g2g2 | 
[V:3] d4e4 | 
[V:4] G,4E,4 | 
[V:1] d3cBAA2- | 
[V:2] a2g4f2 | 
[V:3] f2d4c2 | 
[V:4] D,2G,4A,2 | 
[V:1] A2^G2A4 | 
[V:2] e4c4 | 
[V:3] B4A4 | 
[V:4] E,4F,4 | 
[V:1] z8 | 
[V:2] z8 | 
[V:3] E4G2A2 | 
[V:4] G,4E,2F,2 | 
[V:1] z8 | 
[V:2] z8 | 
[V:3] B3AB2c2- | 
[V:4] D,2G,3F,E,2 | 
[V:1] z4E3F | 
[V:2] z4g3f | 
[V:3] c2B2c4 | 
[V:4] D,4z4 | 
[V:1] G2A2Bcd2- | 
[V:2] d2e2f2g2- | 
[V:3] B2c2d2cB | 
[V:4] z8 | 
[V:1] d2c4B2 | 
[V:2] g2f2g4 | 
[V:3] A4G4 | 
[V:4] C4D4 | 
[V:1] c4B2c2 | 
[V:2] a4g2e2 | 
[V:3] z4z2A2 | 
[V:4] C3DE4 | 
[V:1] d2c2A4 | 
[V:2] g4f2d2 | 
[V:3] B2G2A2F2 | 
[V:4] D2E4D2- | 
[V:1] G4z2A2- | 
[V:2] e4A4 | 
[V:3] E4D2F2- | 
[V:4] D2^C2D4 | 
[V:1] A2G2F4 | 
[V:2] d4d4 | 
[V:3] F2G2A3B | 
[V:4] D,4D,4 | 
[V:1] E4z2D2 | 
[V:2] G4z2g2- | 
[V:3] c4B4 | 
[V:4] C,4G,4 | 
[V:1] E2G2FEDC | 
[V:2] g2e2f4 | 
[V:3] c4A4 | 
[V:4] C,4D,4 | 
[V:1] B,2E4D2 | 
[V:2] g4a4 | 
[V:3] G2E2F4 | 
[V:4] E,4A,4 | 
[V:1] E8- | 
[V:2] g6e2 | 
[V:3] E8- | 
[V:4] B,2C4B,2 | 
[V:1] E8 ||  
[V:2] e8 ||  
[V:3] E8 ||  
[V:4] B,8 ||  
[V:1]  [K:C] [K:clef=treble][M:2/1]z8 | 
[V:2]  [K:C] [K:clef=treble-8][M:2/1]B8 | 
[V:3]  [K:C] [K:clef=treble-8][M:2/1]z8 | 
[V:4]  [K:C] [K:clef=bass][M:2/1]z8 | 
[V:1] z8 | 
[V:2] c4c4 | 
[V:3] z8 | 
[V:4] z8 | 
[V:1] z8 | 
[V:2] d6cB | 
[V:3] z8 | 
[V:4] B,8 | 
[V:1] z8 | 
[V:2] A4A4 | 
[V:3] z8 | 
[V:4] C4C4 | 
[V:1] z8 | 
[V:2] G8 | 
[V:3] z8 | 
[V:4] D6CB, | 
[V:1] z8 | 
[V:2] z4c4 | 
[V:3] z8 | 
[V:4] A,3G,A,4 | 
[V:1] z8 | 
[V:2] d2e4d2- | 
[V:3] z8 | 
[V:4] G,4E,2F,2 | 
[V:1] z8 | 
[V:2] d2g4f2 | 
[V:3] z8 | 
[V:4] G,2E,4D,2 | 
[V:1] z8 | 
[V:2] e2d4c2- | 
[V:3] z8 | 
[V:4] C,2G,4E,2 | 
[V:1] z8 | 
[V:2] c2B2c4 | 
[V:3] z8 | 
[V:4] D,4C,4 | 
[V:1] G4A4 | 
[V:2] z8 | 
[V:3] z8 | 
[V:4] C4C2D2- | 
[V:1] B4c3B | 
[V:2] z8 | 
[V:3] z8 | 
[V:4] D2CB,A,4 | 
[V:1] G4z2A2- | 
[V:2] z8 | 
[V:3] z8 | 
[V:4] B,4C4 | 
[V:1] A2A4GF | 
[V:2] z8 | 
[V:3] z8 | 
[V:4] F,2C4B,2 | 
[V:1] E2F4E2- | 
[V:2] z8 | 
[V:3] z8 | 
[V:4] C2A,4G,2 | 
[V:1] E2D2E4 | 
[V:2] z8 | 
[V:3] z8 | 
[V:4] F,4E,4 | 
[V:1] z8 | 
[V:2] g4e4 | 
[V:3] z8 | 
[V:4] C,2E,3F,G,2 | 
[V:1] z8 | 
[V:2] f2d2e2g2- | 
[V:3] z8 | 
[V:4] A,2B,2CB,A,G, | 
[V:1] z8 | 
[V:2] g2^f2g4 | 
[V:3] z8 | 
[V:4] A,4G,4 | 
[V:1] B4c2d2 | 
[V:2] z8 | 
[V:3] z8 | 
[V:4] G,4A,2B,2 | 
[V:1] B4A4 | 
[V:2] B4c2d2 | 
[V:3] z8 | 
[V:4] G,4F,4 | 
[V:1] G2d4c2 | 
[V:2] B4A4 | 
[V:3] z8 | 
[V:4] G,4z4 | 
[V:1] B2AGF2G2- | 
[V:2] G2d4B2 | 
[V:3] z8 | 
[V:4] z8 | 
[V:1] G2^F2G4 | 
[V:2] A4G4 | 
[V:3] z8 | 
[V:4] z8 | 
[V:1] z8 | 
[V:2] d2e2f2a2- | 
[V:3] z8 | 
[V:4] G,4D,2F,2- | 
[V:1] z8 | 
[V:2] age2d2g2- | 
[V:3] z8 | 
[V:4] F,2G,4B,2 | 
[V:1] z8 | 
[V:2] g2^f2g4 | 
[V:3] z8 | 
[V:4] A,4G,4 | 
[V:1] d4d2e2- | 
[V:2] G3AB2c2- | 
[V:3] z8 | 
[V:4] z8 | 
[V:1] edc2B2d2- | 
[V:2] cdefg3f | 
[V:3] z8 | 
[V:4] z8 | 
[V:1] dcA2G2c2- | 
[V:2] d2c2e4- | 
[V:3] z8 | 
[V:4] z8 | 
[V:1] c2BAB4 | 
[V:2] e2dcd4 | 
[V:3] z8 | 
[V:4] z4G,4 | 
[V:1] c4z4 | 
[V:2] c4g4 | 
[V:3] z8 | 
[V:4] A,4G,2E,2- | 
[V:1] z8 | 
[V:2] a4g2e2- | 
[V:3] z8 | 
[V:4] E,2D,2E,2G,2 | 
[V:1] z4G4 | 
[V:2] e2d2e2g2 | 
[V:3] z8 | 
[V:4] F,3E,C,4 | 
[V:1] A4G2E2- | 
[V:2] f3ec4 | 
[V:3] z8 | 
[V:4] z8 | 
[V:1] E2D2E2G2 | 
[V:2] z4g2e2 | 
[V:3] z8 | 
[V:4] z4G,4 | 
[V:1] F2EDC4 | 
[V:2] f2a4g2- | 
[V:3] z8 | 
[V:4] A,2C4B,2 | 
[V:1] z8 | 
[V:2] g2^f2g4 | 
[V:3] z8 | 
[V:4] A,4G,4- | 
[V:1] G4A2c2 | 
[V:2] z8 | 
[V:3] z8 | 
[V:4] G,2E,2F,2A,2- | 
[V:1] d2B2A4 | 
[V:2] z8 | 
[V:3] z8 | 
[V:4] A,2G,4^F,2 | 
[V:1] G2E2F2A2- | 
[V:2] z8 | 
[V:3] z8 | 
[V:4] G,4A,2C2 | 
[V:1] A2G4^F2 | 
[V:2] z8 | 
[V:3] z8 | 
[V:4] D2B,2A,4 | 
[V:1] G4A4 | 
[V:2] g4c2d2- | 
[V:3] z8 | 
[V:4] G,4F,4 | 
[V:1] B4c4 | 
[V:2] d2e4f2- | 
[V:3] z8 | 
[V:4] G,4A,4 | 
[V:1] A2B4A2- | 
[V:2] f2d2e2c2 | 
[V:3] z8 | 
[V:4] F,2G,4A,2 | 
[V:1] A2^G2A4 | 
[V:2] B4A4 | 
[V:3] z8 | 
[V:4] E,4F,2D,2 | 
[V:1] z8 | 
[V:2] E3FG2A2 | 
[V:3] z8 | 
[V:4] C,2G,4F,2 | 
[V:1] z8 | 
[V:2] B2c4B2 | 
[V:3] z8 | 
[V:4] G,2E,2D,4 | 
[V:1] E3FG2A2 | 
[V:2] c4e2f2 | 
[V:3] z8 | 
[V:4] C,2C4B,A, | 
[V:1] B2c4B2 | 
[V:2] g2c2d4 | 
[V:3] z8 | 
[V:4] G,2A,2G,4 | 
[V:1] c4B2c2 | 
[V:2] c4e4 | 
[V:3] z8 | 
[V:4] C,4G,2A,2 | 
[V:1] d3cA4 | 
[V:2] d2e3dd2- | 
[V:3] z8 | 
[V:4] B,2G,2A,2F,2 | 
[V:1] G4z2A2- | 
[V:2] d2^c2d3=c | 
[V:3] z8 | 
[V:4] E,4D,2F,2- | 
[V:1] A2GFE2D2 | 
[V:2] A4z2a2- | 
[V:3] z8 | 
[V:4] F,G,A,B,C2D2 | 
[V:1] F2E2C2F2- | 
[V:2] a2g2e2a2- | 
[V:3] z8 | 
[V:4] A,2C4F,2- | 
[V:1] F2E4D2 | 
[V:2] a2g2f4 | 
[V:3] z8 | 
[V:4] F,2G,2A,2B,2 | 
[V:1] E8 ||  
[V:2] e8 ||  
[V:3] z8 ||  
[V:4] C8 ||  
[V:1]  [K:C] [K:clef=treble][M:2/1]B4B4 | 
[V:2]  [K:C] [K:clef=treble-8][M:2/1]g4g4 | 
[V:3]  [K:C] [K:clef=treble-8][M:2/1]z8 | 
[V:4]  [K:C] [K:clef=bass][M:2/1]z8 | 
[V:1] c4c4 | 
[V:2] e4e4 | 
[V:3] z8 | 
[V:4] z8 | 
[V:1] d8 | 
[V:2] d4G3A | 
[V:3] z8 | 
[V:4] z8 | 
[V:1] z4G4 | 
[V:2] B3AB2c2- | 
[V:3] z8 | 
[V:4] z8 | 
[V:1] A4B4 | 
[V:2] c2BAG4 | 
[V:3] z8 | 
[V:4] z8 | 
[V:1] c2BAG2A2- | 
[V:2] A2G2B2c2- | 
[V:3] z8 | 
[V:4] z8 | 
[V:1] A2G4^F2 | 
[V:2] cBAGA4 | 
[V:3] z8 | 
[V:4] z8 | 
[V:1] G4z4 | 
[V:2] G8 | 
[V:3] z8 | 
[V:4] z8 | 
[V:1] D4G4- | 
[V:2] z4d4 | 
[V:3] B8- | 
[V:4] G,8- | 
[V:1] G2A2B4 | 
[V:2] d4d4 | 
[V:3] B8 | 
[V:4] G,8 | 
[V:1] A4G4 | 
[V:2] f4g4 | 
[V:3] c8- | 
[V:4] F,4E,4 | 
[V:1] c8 | 
[V:2] a2e2f4 | 
[V:3] c8 | 
[V:4] A,8 | 
[V:1] B8 | 
[V:2] g4d4 | 
[V:3] d8 | 
[V:4] G,8- | 
[V:1] z4B4 | 
[V:2] g8 | 
[V:3] d6c2 | 
[V:4] G,8 | 
[V:1] c8 | 
[V:2] a6g2 | 
[V:3] A8 | 
[V:4] F,8- | 
[V:1] d8 | 
[V:2] f2e2f4 | 
[V:3] D8 | 
[V:4] F,4D,4 | 
[V:1] B4c4 | 
[V:2] g4e4- | 
[V:3] G8- | 
[V:4] E,4C,4 | 
[V:1] B6AG | 
[V:2] e2d2B2c2 | 
[V:3] G8 | 
[V:4] E,8 | 
[V:1] F4A4 | 
[V:2] d4c4 | 
[V:3] A8 | 
[V:4] D,4F,4 | 
[V:1] G4B4- | 
[V:2] e4d4- | 
[V:3] B8- | 
[V:4] E,4G,4- | 
[V:1] B2c2d4 | 
[V:2] d2e2f2g2 | 
[V:3] B8 | 
[V:4] G,2F,E,D,4 | 
[V:1] G4A2G2- | 
[V:2] e4c2e2- | 
[V:3] c8 | 
[V:4] C,8 | 
[V:1] GFE2D4 | 
[V:2] e2dcB4 | 
[V:3] G8 | 
[V:4] z8 | 
[V:1] C4z2G2- | 
[V:2] c8 | 
[V:3] z8 | 
[V:4] C,8 | 
[V:1] G2A2G2c2- | 
[V:2] e4c4 | 
[V:3] z8 | 
[V:4] C3DE4 | 
[V:1] c2B4c2 | 
[V:2] A2G4A2 | 
[V:3] z8 | 
[V:4] C2D4C2 | 
[V:1] d2e4d2- | 
[V:2] G2c4G2 | 
[V:3] z8 | 
[V:4] B,2A,2C2B,2 | 
[V:1] d2c4B2 | 
[V:2] A2c2G4 | 
[V:3] z8 | 
[V:4] C2E2D4 | 
[V:1] c4z2G2 | 
[V:2] g4e4 | 
[V:3] e8- | 
[V:4] C4C,4 | 
[V:1] G2G2A4 | 
[V:2] g4f4 | 
[V:3] e8 | 
[V:4] E,4F,3E, | 
[V:1] G4c4- | 
[V:2] e4g4- | 
[V:3] e8- | 
[V:4] C,8 | 
[V:1] c2BAG4 | 
[V:2] g2d2e4 | 
[V:3] e8 | 
[V:4] z4C,4 | 
[V:1] A4A2A2- | 
[V:2] f4c2f2- | 
[V:3] A8- | 
[V:4] C6A,2- | 
[V:1] A2G2F2F2 | 
[V:2] f2edc3d | 
[V:3] A8 | 
[V:4] A,2F,2A,2B,2 | 
[V:1] E8 | 
[V:2] e4c4- | 
[V:3] C8- | 
[V:4] C6B,A, | 
[V:1] z4G4 | 
[V:2] c2d2e4 | 
[V:3] C8 | 
[V:4] G,8 | 
[V:1] A4c4- | 
[V:2] A8 | 
[V:3] c8- | 
[V:4] F,4F,2A,2- | 
[V:1] c2B2A4 | 
[V:2] z4A4 | 
[V:3] c8 | 
[V:4] A,G,F,E,F,4 | 
[V:1] G4D2G2- | 
[V:2] d8 | 
[V:3] B8 | 
[V:4] G,8 | 
[V:1] G2^FEF4 | 
[V:2] c4A4 | 
[V:3] c8 | 
[V:4] A,8 | 
[V:1] G4z2B2- | 
[V:2] B4G4- | 
[V:3] d8 | 
[V:4] G,4G,2G,2- | 
[V:1] B2c2d4 | 
[V:2] G4F4 | 
[V:3] B8 | 
[V:4] G,2F,E,D,4 | 
[V:1] e6c2- | 
[V:2] G6A2- | 
[V:3] c8 | 
[V:4] C,6F,2- | 
[V:1] c2d2c3B | 
[V:2] A2F2A3B | 
[V:3] A8 | 
[V:4] F,2D,2F,3G, | 
[V:1] A4G2A2 | 
[V:2] c2d2e4 | 
[V:3] z8 | 
[V:4] A,2B,2C4 | 
[V:1] B2c4B2- | 
[V:2] d2e2c2d2- | 
[V:3] z8 | 
[V:4] B,2A,4G,2- | 
[V:1] B2A4^G2 | 
[V:2] d2c2B4 | 
[V:3] z8 | 
[V:4] G,2A,2E,4 | 
[V:1] A8 | 
[V:2] A2c4d2 | 
[V:3] A8- | 
[V:4] z4A,4 | 
[V:1] z4c4 | 
[V:2] e2f2e2a2- | 
[V:3] A8 | 
[V:4] C6D2 | 
[V:1] c4c4 | 
[V:2] ag^fe^f4 | 
[V:3] A8 | 
[V:4] E4C4 | 
[V:1] B4c2d2- | 
[V:2] g4z2d2- | 
[V:3] G8- | 
[V:4] D4C2B,2- | 
[V:1] dcBAB4 | 
[V:2] d2c2d2e2 | 
[V:3] G8 | 
[V:4] B,2A,2G,4 | 
[V:1] A6GF | 
[V:2] f3ec3d | 
[V:3] c8 | 
[V:4] F,6E,D, | 
[V:1] E4D4 | 
[V:2] e3fg4 | 
[V:3] c4B4 | 
[V:4] C,4G,4 | 
[V:1] E3FG2A2- | 
[V:2] z2G4F2 | 
[V:3] c8 | 
[V:4] C,3D,E,2F,2- | 
[V:1] A2G4^F2 | 
[V:2] A2B2A4 | 
[V:3] d8 | 
[V:4] F,2G,2D,4 | 
[V:1] G4z4 | 
[V:2] G4d4 | 
[V:3] d4B4 | 
[V:4] G,8 | 
[V:1] A4B4 | 
[V:2] A4F4 | 
[V:3] c4d4 | 
[V:4] F,6E,D, | 
[V:1] c6BA | 
[V:2] G2A4GF | 
[V:3] e8- | 
[V:4] C,8 | 
[V:1] G4A2B2- | 
[V:2] E2c4BA | 
[V:3] e8 | 
[V:4] z8 | 
[V:1] B2A4^G2 | 
[V:2] G2A2E4 | 
[V:3] e8 | 
[V:4] z8 | 
[V:1] A8 | 
[V:2] e4e4 | 
[V:3] A8- | 
[V:4] C8 | 
[V:1] z4A4- | 
[V:2] f8 | 
[V:3] A8 | 
[V:4] F,6E,D, | 
[V:1] A2GFE4 | 
[V:2] e4c4 | 
[V:3] z8 | 
[V:4] C,8 | 
[V:1] D4E4 | 
[V:2] B4c4 | 
[V:3] z8 | 
[V:4] G,4E,4 | 
[V:1] F4G4 | 
[V:2] d4B4 | 
[V:3] z8 | 
[V:4] D,4E,4 | 
[V:1] E4C4 | 
[V:2] c4A4 | 
[V:3] z8 | 
[V:4] C,4F,3E, | 
[V:1] E2F2G4 | 
[V:2] z2A2G2c2- | 
[V:3] z8 | 
[V:4] C,2D,2E,2C,2- | 
[V:1] E2F4D2 | 
[V:2] cBc2d2B2 | 
[V:3] z8 | 
[V:4] C,2F,2D,2G,2 | 
[V:1] E4A,4 | 
[V:2] c3de4 | 
[V:3] z8 | 
[V:4] C,4C3D | 
[V:1] z8 | 
[V:2] A3Bcde2- | 
[V:3] z8 | 
[V:4] E4A,4 | 
[V:1] z8 | 
[V:2] e2f2e2a2- | 
[V:3] z8 | 
[V:4] G,2A,2C3B, | 
[V:1] z8 | 
[V:2] age2d2f2- | 
[V:3] z8 | 
[V:4] A,2G,2B,2A,2- | 
[V:1] z8 | 
[V:2] f2e4d2 | 
[V:3] z8 | 
[V:4] A,2G,2F,4 | 
[V:1] z8 | 
[V:2] e4z2B2- | 
[V:3] z8 | 
[V:4] E,4G,4- | 
[V:1] z8 | 
[V:2] B2c2B2e2- | 
[V:3] z8 | 
[V:4] G,2F,2G,4 | 
[V:1] z8 | 
[V:2] edB2A2c2- | 
[V:3] z8 | 
[V:4] A,2G,2C3D | 
[V:1] z8 | 
[V:2] c2B4A2- | 
[V:3] z8 | 
[V:4] E2D3CB,A, | 
[V:1] z8 | 
[V:2] A2^G2A4 | 
[V:3] z8 | 
[V:4] B,4A,4 | 
[V:1] [M:3/1]c8c4 | 
[V:2] [M:3/1]e8f4 | 
[V:3] [M:3/1]A8A4 | 
[V:4] [M:3/1]A,6B,2C4 | 
[V:1] B8c4 | 
[V:2] g8f4 | 
[V:3] G8A4 | 
[V:4] D8C4 | 
[V:1] d6c2B2A2 | 
[V:2] d4e4A4 | 
[V:3] G4c4d4 | 
[V:4] B,4A,4G,2F,2 | 
[V:1] G6A2B4 | 
[V:2] B4c4B4 | 
[V:3] e12 | 
[V:4] E,6F,2G,4 | 
[V:1] c8B4 | 
[V:2] A8z4 | 
[V:3] e8d4 | 
[V:4] A,4C4G,4 | 
[V:1] c4A4B4 | 
[V:2] e4f4g4- | 
[V:3] c8d4 | 
[V:4] A,8G,4 | 
[V:1] c4d2c2B2A2 | 
[V:2] g12 | 
[V:3] e4d8 | 
[V:4] C4G,8 | 
[V:1] A8^G4 | 
[V:2] e8e4 | 
[V:3] c4B8 | 
[V:4] A,4E,8 | 
[V:1] A12 |]  
[V:2] c12 |]  
[V:3] A12 |]  
[V:4] A,12 |]  



